X: 5
T: The Haunted House
R: jig
M: 6/8
L: 1/8
K: Gmaj
G^FG A^GA | BGE EDE | GB/c/d egd | ege edB |G2 G A2 A | BGE EDE | GBd e/f/ge | dBA G2 :|GBd egd | ege edB | GBd d2 d | ded dBA |GBd e2 d | e/f/ge edB | GB/c/d ege | dBA G2 D |GB/c/d e3 | e^de e=dB | GBd d2 G | dgf edB |G3 A^GA | BGE E^DE | GBd e2 g | dBA G2 |]~ | dgf edB | ~ or ~ | d/e/ge dBA | ~ or ~ | dge dBA |GDG A^GA | BGE E2 D | GB/c/d ege | dc/B/A G2 |]


Tune 1098	Setting 14345

